Newaita/actions/22/user-group-delete.svg

<svg height="22" viewBox="0 0 22 22" width="22" xmlns="http://www.w3.org/2000/svg"><g fill="#424242"><path d="m7.726562 6.085938c-1.761718 0-3.183593 1.417968-3.183593 3.183593 0 1.761719 1.421875 3.183594 3.183593 3.183594 1.765626 0 3.183594-1.421875 3.183594-3.183594 0-1.765625-1.417968-3.183593-3.183594-3.183593zm0 1.816406c.757813 0 1.363282.609375 1.363282 1.367187 0 .753907-.605469 1.363281-1.363282 1.363281-.753906 0-1.363281-.609374-1.363281-1.363281 0-.757812.609375-1.367187 1.363281-1.367187zm0 0"/><path d="m3.179688 15.179688c-.757813 0-1.363282.609374-1.363282 1.363281v2.277343c0 .753907.605469 1.363282 1.363282 1.363282h9.09375c.757812 0 1.367187-.609375 1.367187-1.363282v-2.277343c0-.753907-.609375-1.363281-1.367187-1.363281h-.453126v2.730468c0 .25-.203124.453125-.453124.453125h-7.277344c-.253906 0-.457032-.203125-.457032-.453125v-2.730468zm0 0"/><path d="m5.453125 12.910156c-.605469 0-1.335937.125-2.042969.40625-.351562.140625-.695312.320313-1 .601563-.308594.28125-.589844.734375-.589844 1.261719v1.363281c-.007812.328125.164063.632812.449219.796875.28125.164062.628907.164062.910157 0 .285156-.164063.453124-.46875.449218-.796875v-1.289063c.003906-.003906 0 .003906.007813-.003906.0625-.058594.230469-.164062.445312-.253906.371094-.148438.875-.238282 1.207031-.265625 1.78125.824219 3.472657.859375 4.941407.007812.332031.03125.796875.121094 1.140625.257813.214844.089844.382812.195312.445312.253906.007813.007812.003906 0 .007813.003906v1.289063c-.003907.328125.167969.632812.449219.796875.28125.164062.632812.164062.914062 0 .28125-.164063.453125-.46875.449219-.796875v-1.363281c0-.527344-.285157-.980469-.589844-1.261719-.308594-.28125-.652344-.460938-1.003906-.601563-.703125-.28125-1.4375-.40625-2.042969-.40625-.175781 0-.351562.054688-.5.152344-1.132812.753906-1.984375.773438-3.640625-.054688-.128906-.066406-.265625-.097656-.40625-.097656zm0 0"/></g><path d="m14.09375 1.992188c-1.761719 0-3.183594 1.417968-3.183594 3.183593 0 1.761719 1.421875 3.183594 3.183594 3.183594 1.765625 0 3.183594-1.421875 3.183594-3.183594 0-1.765625-1.417969-3.183593-3.183594-3.183593zm0 1.816406c.757812 0 1.363281.609375 1.363281 1.367187 0 .753907-.605469 1.363281-1.363281 1.363281-.753906 0-1.363281-.609374-1.363281-1.363281 0-.757812.609375-1.367187 1.363281-1.367187zm0 0" fill="#f44336"/><path d="m16.367188 8.816406c-.175782 0-.351563.054688-.5.152344-1.121094.746094-1.964844.773438-3.585938-.027344v1.953125c1.550781.5625 3.019531.5 4.316406-.25.332032.03125.796875.121094 1.140625.261719.214844.085938.382813.191406.445313.25h.003906v2.660156c0 .25-.203125.453125-.453125.453125h-2.726563v1.820313h3.632813c.757813 0 1.367187-.609375 1.367187-1.363282v-2.273437c0-.039063-.003906-.074219-.003906-.109375v-1.257812c0-.527344-.285156-.976563-.589844-1.261719-.308593-.28125-.652343-.460938-1.003906-.601563-.703125-.28125-1.4375-.40625-2.042968-.40625zm0 0" fill="#f44336"/></svg>

<?xml version="1.0" encoding="UTF-8"?>
<svg xmlns="http://www.w3.org/2000/svg" xmlns:xlink="http://www.w3.org/1999/xlink" width="22px" height="22px" viewBox="0 0 22 22" version="1.1">
<g id="surface1">
<path style=" stroke:none;fill-rule:nonzero;fill:rgb(25.882354%,25.882354%,25.882354%);fill-opacity:1;" d="M 7.726562 6.085938 C 5.964844 6.085938 4.542969 7.503906 4.542969 9.269531 C 4.542969 11.03125 5.964844 12.453125 7.726562 12.453125 C 9.492188 12.453125 10.910156 11.03125 10.910156 9.269531 C 10.910156 7.503906 9.492188 6.085938 7.726562 6.085938 Z M 7.726562 7.902344 C 8.484375 7.902344 9.089844 8.511719 9.089844 9.269531 C 9.089844 10.023438 8.484375 10.632812 7.726562 10.632812 C 6.972656 10.632812 6.363281 10.023438 6.363281 9.269531 C 6.363281 8.511719 6.972656 7.902344 7.726562 7.902344 Z M 7.726562 7.902344 "/>
<path style=" stroke:none;fill-rule:nonzero;fill:rgb(25.882354%,25.882354%,25.882354%);fill-opacity:1;" d="M 3.179688 15.179688 C 2.421875 15.179688 1.816406 15.789062 1.816406 16.542969 L 1.816406 18.820312 C 1.816406 19.574219 2.421875 20.183594 3.179688 20.183594 L 12.273438 20.183594 C 13.03125 20.183594 13.640625 19.574219 13.640625 18.820312 L 13.640625 16.542969 C 13.640625 15.789062 13.03125 15.179688 12.273438 15.179688 L 11.820312 15.179688 L 11.820312 17.910156 C 11.820312 18.160156 11.617188 18.363281 11.367188 18.363281 L 4.089844 18.363281 C 3.835938 18.363281 3.632812 18.160156 3.632812 17.910156 L 3.632812 15.179688 Z M 3.179688 15.179688 "/>
<path style=" stroke:none;fill-rule:nonzero;fill:rgb(25.882354%,25.882354%,25.882354%);fill-opacity:1;" d="M 5.453125 12.910156 C 4.847656 12.910156 4.117188 13.035156 3.410156 13.316406 C 3.058594 13.457031 2.714844 13.636719 2.410156 13.917969 C 2.101562 14.199219 1.820312 14.652344 1.820312 15.179688 L 1.820312 16.542969 C 1.8125 16.871094 1.984375 17.175781 2.269531 17.339844 C 2.550781 17.503906 2.898438 17.503906 3.179688 17.339844 C 3.464844 17.175781 3.632812 16.871094 3.628906 16.542969 L 3.628906 15.253906 C 3.632812 15.25 3.628906 15.257812 3.636719 15.25 C 3.699219 15.191406 3.867188 15.085938 4.082031 14.996094 C 4.453125 14.847656 4.957031 14.757812 5.289062 14.730469 C 7.070312 15.554688 8.761719 15.589844 10.230469 14.738281 C 10.5625 14.769531 11.027344 14.859375 11.371094 14.996094 C 11.585938 15.085938 11.753906 15.191406 11.816406 15.25 C 11.824219 15.257812 11.820312 15.25 11.824219 15.253906 L 11.824219 16.542969 C 11.820312 16.871094 11.992188 17.175781 12.273438 17.339844 C 12.554688 17.503906 12.90625 17.503906 13.1875 17.339844 C 13.46875 17.175781 13.640625 16.871094 13.636719 16.542969 L 13.636719 15.179688 C 13.636719 14.652344 13.351562 14.199219 13.046875 13.917969 C 12.738281 13.636719 12.394531 13.457031 12.042969 13.316406 C 11.339844 13.035156 10.605469 12.910156 10 12.910156 C 9.824219 12.910156 9.648438 12.964844 9.5 13.0625 C 8.367188 13.816406 7.515625 13.835938 5.859375 13.007812 C 5.730469 12.941406 5.59375 12.910156 5.453125 12.910156 Z M 5.453125 12.910156 "/>
<path style=" stroke:none;fill-rule:nonzero;fill:rgb(95.686275%,26.274511%,21.176471%);fill-opacity:1;" d="M 14.09375 1.992188 C 12.332031 1.992188 10.910156 3.410156 10.910156 5.175781 C 10.910156 6.9375 12.332031 8.359375 14.09375 8.359375 C 15.859375 8.359375 17.277344 6.9375 17.277344 5.175781 C 17.277344 3.410156 15.859375 1.992188 14.09375 1.992188 Z M 14.09375 3.808594 C 14.851562 3.808594 15.457031 4.417969 15.457031 5.175781 C 15.457031 5.929688 14.851562 6.539062 14.09375 6.539062 C 13.339844 6.539062 12.730469 5.929688 12.730469 5.175781 C 12.730469 4.417969 13.339844 3.808594 14.09375 3.808594 Z M 14.09375 3.808594 "/>
<path style=" stroke:none;fill-rule:nonzero;fill:rgb(95.686275%,26.274511%,21.176471%);fill-opacity:1;" d="M 16.367188 8.816406 C 16.191406 8.816406 16.015625 8.871094 15.867188 8.96875 C 14.746094 9.714844 13.902344 9.742188 12.28125 8.941406 L 12.28125 10.894531 C 13.832031 11.457031 15.300781 11.394531 16.597656 10.644531 C 16.929688 10.675781 17.394531 10.765625 17.738281 10.90625 C 17.953125 10.992188 18.121094 11.097656 18.183594 11.15625 C 18.1875 11.15625 18.1875 11.15625 18.1875 11.15625 L 18.1875 13.816406 C 18.1875 14.066406 17.984375 14.269531 17.734375 14.269531 L 15.007812 14.269531 L 15.007812 16.089844 L 18.640625 16.089844 C 19.398438 16.089844 20.007812 15.480469 20.007812 14.726562 L 20.007812 12.453125 C 20.007812 12.414062 20.003906 12.378906 20.003906 12.34375 L 20.003906 11.085938 C 20.003906 10.558594 19.71875 10.109375 19.414062 9.824219 C 19.105469 9.542969 18.761719 9.363281 18.410156 9.222656 C 17.707031 8.941406 16.972656 8.816406 16.367188 8.816406 Z M 16.367188 8.816406 "/>
</g>
</svg>
